X:1
T:Title
%%score { ( 1 3 ) | 2 }
L:1/8
Q:1/4=100
M:4/4
K:Ab
V:1 treble nm="Grand Piano"
V:3 treble 
V:2 bass 
V:1
 [Ec]2 [Ec]>[Fd] [Ec]2 [EB][EA] | B2 [FA]>[DF] [CE]2 [A,C]2 | [CE]2 [CE]>[DF] [CE]2 [EA]>B | %3
w: D.~B.~Purinton * * * * *|||
 c2 d>c B4 | c2 c>d e2 dc | B2 c>B [CA]2 [CE]2 | [DF]2 [DF]>[EF] [Fd]2 [Fc]>[EB] | e2 B>c [CA]4 | %8
w: |||||
 [Fd]2 [Fd]>[Fd] [Af]3 [Fd] | c2 c>c e4 | e3 c A>G [EA]>[Ec] | [EB]6[K:bass] z2 | c2 c>d e2 dc | %13
w: |||||
 B2 c>B [CA]2 [CE]2 | [DF]2 [DF]>[EF] [Fd]2 [Fc]>[EB] |[M:8/4] e2 B>c [CA]4 z8 |] %16
w: |||
V:2
 [A,,A,]2 [A,,A,]>[A,,A,] [A,,A,]2 [B,,G,][C,A,] | [D,F,]2 [D,A,]>[D,A,] [A,,A,]2 [A,,E,]2 | %2
 [A,,A,]2 [A,,A,]>[A,,A,] [A,,A,]2 [C,A,]>[E,G,E] | [A,E]2 [G,B,E]>[A,E] [E,G,E]4 | %4
 [A,E]2 [A,E]>[A,B,E] [A,CE]2 [G,B,E][A,E] | [E,G,E]2 [E,G,E]>[E,G,D] [A,,A,]2 [A,,A,]2 | %6
 [D,A,]2 [D,A,]>[C,=A,] [B,,B,]2 [C,A,]>[D,B,] | [E,CE]2 [E,G,D]>[E,G,E] [A,,A,]4 | %8
 [D,A,]2 [D,A,]>[D,A,] [D,D]3 [D,A,] | [A,E]2 [A,E]>[A,E] [A,CE]4 | %10
 [A,CA]3 [A,EA][K:bass] [A,CE]>[E,B,E] [C,A,]>[A,,A,] | [E,G,]2 E,>E, E,D,C,E, | %12
 [A,E]2 [A,E]>[A,B,E] [A,CE]2 [G,B,E][A,E] | [E,G,E]2 [E,G,E]>[E,G,D] [A,,A,]2 [A,,A,]2 | %14
 [D,A,]2 [D,A,]>[C,=A,] [B,,B,]2 [C,A,]>[D,B,] |[M:8/4] [E,CE]2 [E,G,D]>[E,G,E] [A,,A,]4 z8 |] %16
V:3
 x8 | x8 | x8 | x8 | x8 | x8 | x8 | x8 | x8 | x8 | x8 | z2[K:bass] G,>G, G,B,A,G, | x8 | x8 | x8 | %15
[M:8/4] x16 |] %16

